X:13325
T:Polka norveginne
C:Trad 1, 65
M:2/4
L:1/16
K:G
dedc BdBG|dedc BdBG|B2A2 d3F|A2G2 edBG|\
dedc BdBG|dedc BdBG|B2A2 d3F|A2G2 G4:|
g2g2 egec|d2d2 BdBG|B2A2 d3F|A2G2 edBG|\
g2g2 egec|d2d2 BdBG|B2A2 d3F|A2G2 G4:|
